dist/assets/img/categoria-design-ux.svg

<?xml version="1.0" encoding="UTF-8" standalone="no"?>
<svg width="33px" height="25px" viewBox="0 0 33 25" version="1.1" xmlns="http://www.w3.org/2000/svg" xmlns:xlink="http://www.w3.org/1999/xlink" xmlns:sketch="http://www.bohemiancoding.com/sketch/ns">
    <!-- Generator: sketchtool 3.4.4 (395) - http://www.bohemiancoding.com/sketch -->
    <title>designeux</title>
    <desc>Created with sketchtool.</desc>
    <defs></defs>
    <g id="Page-1" stroke="none" stroke-width="1" fill="none" fill-rule="evenodd" sketch:type="MSPage">
        <g id="Desktop-HD" sketch:type="MSArtboardGroup" transform="translate(-748.000000, -502.000000)" fill="#FFFFFF">
            <g id="Page-1" sketch:type="MSLayerGroup" transform="translate(748.000000, 502.000000)">
                <path d="M32.7292087,11.759 C32.6660783,11.6418261 31.1533391,8.85452174 28.4315565,6.04186957 C24.7494261,2.23682609 20.6014696,0.22526087 16.4358174,0.22526087 C12.2701652,0.22526087 8.1222087,2.23682609 4.44007826,6.04186957 C1.71829565,8.85452174 0.205556522,11.6418261 0.142426087,11.759 C0.00755652174,12.010087 -0.0283130435,12.2879565 0.0209478261,12.5476522 C-0.0283130435,12.8073478 0.00755652174,13.0847391 0.142426087,13.3358261 C0.205556522,13.453 1.71829565,16.2403043 4.44007826,19.0534348 C8.1222087,22.8584783 12.2701652,24.8695652 16.4358174,24.8695652 C20.6014696,24.8695652 24.7494261,22.8584783 28.4315565,19.0534348 C31.1533391,16.2403043 32.6660783,13.453 32.7292087,13.3358261 C32.8640783,13.0852174 32.8994696,12.8073478 32.8502087,12.5481304 C32.8999478,12.2879565 32.8640783,12.010087 32.7292087,11.759 Z M16.4358174,22.4782609 C8.79464348,22.4782609 3.51368696,14.3339565 2.44716522,12.5466957 C3.51033913,10.7584783 8.77407826,2.61656522 16.4358174,2.61656522 C24.076513,2.61656522 29.3579478,10.7603913 30.4239913,12.5476522 C29.356513,14.3363478 24.0760348,22.4782609 16.4358174,22.4782609 Z M18.3104565,12.4490348 C18.3104565,11.8756 18.7753261,11.2533826 19.3487609,11.2533826 L21.8859348,11.2533826 C21.3880652,8.86207826 19.1349783,6.87346957 16.4285,6.87346957 C13.357587,6.87346957 10.8682391,9.41973043 10.8682391,12.4906435 C10.8682391,15.5615565 13.357587,18.1236 16.4285,18.1236 C19.154587,18.1236 21.4210652,16.0359913 21.8959783,13.644687 L19.3487609,13.644687 C18.7753261,13.644687 18.3104565,13.0224696 18.3104565,12.4490348 Z" id="designeux" sketch:type="MSShapeGroup"></path>
            </g>
        </g>
    </g>
</svg>

<svg width="33" height="25" viewBox="0 0 33 25" xmlns="http://www.w3.org/2000/svg"><title>designeux</title><g id="Page-1" fill="none" fill-rule="evenodd"><g id="Desktop-HD" transform="translate(-748 -502)" fill="#FFF"><g id="Page-1" transform="translate(748 502)"><path d="M32.73 11.759c-.064-.117-1.577-2.904-4.298-5.717C24.749 2.237 20.602.225 16.436.225S8.122 2.237 4.44 6.042C1.718 8.855.206 11.642.142 11.759c-.134.251-.17.529-.121.789-.05.26-.013.537.121.788.064.117 1.576 2.904 4.298 5.717 3.682 3.805 7.83 5.817 11.996 5.817 4.165 0 8.313-2.012 11.996-5.817 2.721-2.813 4.234-5.6 4.297-5.717.135-.25.17-.529.121-.788a1.19 1.19 0 0 0-.12-.789zm-16.294 10.72c-7.641 0-12.922-8.145-13.989-9.932 1.063-1.789 6.327-9.93 13.989-9.93 7.64 0 12.922 8.143 13.988 9.93-1.067 1.79-6.348 9.931-13.988 9.931zm1.874-10.03c0-.573.465-1.196 1.039-1.196h2.537c-.498-2.39-2.751-4.38-5.457-4.38-3.071 0-5.56 2.547-5.56 5.618 0 3.07 2.489 5.633 5.56 5.633 2.726 0 4.992-2.088 5.467-4.48h-2.547c-.574 0-1.039-.622-1.039-1.195z" id="designeux"/></g></g></g></svg>
